X:1
T:Title
%%score ( 1 2 ) { 3 | 4 }
L:1/8
Q:1/4=105
M:4/4
K:C
V:1 treble nm="Grand Piano, Soprano"
V:2 treble 
V:3 treble nm="Choir Pad, El Segundo, CMD"
V:4 bass 
V:1
 [EG]2 [CE]>[DF] [Ec]3 [GB] | dcBc D3 [CE] | [B,F]2 [B,D]2 [B,A]3 [B,G] | [CE]6 z [EG] | %4
w: By~Daniel~Brink~Towner,~CMD * * * *||||
 [EG]2 [CE]2 [Ec]3 [GB] | dcBc D3 [CE] | z4 .A2 .F2 | C6 z [B,D] | [B,D]2 [CE]2 [DF]3 [B,D] | %9
w: |||||
 [DA]2 [DG]2 [CE]3 [CE] | [B,D]2 [DG]2 [GB]3 [DA] | [DG]6 z [FG] | [EG]2 [CE]2 [Ec]3 [GB] | %13
w: ||||
 dcBc D3 [CE] | z4 .A2 .F2 | C8 |] %16
w: |||
V:2
 x8 | F2 F2 z4 | x8 | x8 | x8 | F2 F2 z4 | [B,F]2 [B,D]2 B,-[B,G]B,-[B,D] | x8 | x8 | x8 | x8 | %11
 x8 | x8 | F2 F2 z4 | [B,F]2 [B,D]2 B,-[B,G]B,-[B,D] | x8 |] %16
V:3
 C2 C>C G,3 G, | A,2 A,2 A,3 G, | G,2 G,2 F,3 G, | G,6 z C | C2 G,2 G,3 G, | A,2 A,2 A,3 G, | %6
 G,2 G,2 F,2 D,E, | E,6 z G, | G,2 G,2 G,3 G, | B,2 B,2 C3 G, | G,2 B,2[K:treble] D3 C | B,6 z B, | %12
 C2[K:bass] G,2 G,3 G, | A,2 A,2 A,3 G, | G,2 G,2 F,2 D,E, | E,8 |] %16
V:4
 C,2 C,>C, C,3 E, | F,2 F,2 F,3 E, | D,2 B,,2 G,,3 G,, | C,6 z C, | C,2 C,2 C,3 E, | %5
 F,2 F,2 F,3 E, | D,2 B,,2 G,,2 G,,2 | C,6 z G,, | G,,2 G,,2 G,,3 G,, | G,,2 G,,2 C,3 C, | %10
 D,2 D,2 D,3 ^F, | G,6 z G, | C,2 C,2 C,3 E, | F,2 F,2 F,3 E, | D,2 B,,2 G,,2 G,,2 | C,8 |] %16

